wwr/images/x-twitter.svg

<svg fill="none" version="1.1" viewBox="0 0 1200 1227" xmlns="http://www.w3.org/2000/svg"><g clip-path="url(#clip0_1_2)" style="fill:#fff"><path d="m714.16 519.28 446.73-519.28h-105.86l-387.89 450.89-309.81-450.89h-357.33l468.49 681.82-468.49 544.55h105.87l409.62-476.15 327.18 476.15h357.33l-485.86-707.09h0.026zm-145 168.54-47.468-67.894-377.69-540.24h162.6l304.8 435.99 47.468 67.894 396.2 566.72h-162.6l-323.31-462.45v-0.026z" fill="#fff" style="fill:#fff"/></g><defs><clipPath id="clip0_1_2"><rect width="1200" height="1227" fill="#000"/></clipPath></defs></svg>

<?xml version="1.0" encoding="UTF-8" standalone="no"?>
<svg
   width="1200"
   height="1227"
   viewBox="0 0 1200 1227"
   fill="none"
   version="1.1"
   id="svg11"
   sodipodi:docname="x-twitter.svg"
   inkscape:version="1.2.2 (b0a8486541, 2022-12-01)"
   xmlns:inkscape="http://www.inkscape.org/namespaces/inkscape"
   xmlns:sodipodi="http://sodipodi.sourceforge.net/DTD/sodipodi-0.dtd"
   xmlns="http://www.w3.org/2000/svg"
   xmlns:svg="http://www.w3.org/2000/svg">
  <sodipodi:namedview
     id="namedview13"
     pagecolor="#505050"
     bordercolor="#eeeeee"
     borderopacity="1"
     inkscape:showpageshadow="0"
     inkscape:pageopacity="0"
     inkscape:pagecheckerboard="0"
     inkscape:deskcolor="#505050"
     showgrid="false"
     inkscape:zoom="0.56316218"
     inkscape:cx="600.18234"
     inkscape:cy="613.5"
     inkscape:window-width="3840"
     inkscape:window-height="2136"
     inkscape:window-x="1600"
     inkscape:window-y="0"
     inkscape:window-maximized="1"
     inkscape:current-layer="svg11" />
  <g
     clip-path="url(#clip0_1_2)"
     id="g4"
     style="fill:#000000">
    <path
       d="M714.163 519.284L1160.89 0H1055.03L667.137 450.887L357.328 0H0L468.492 681.821L0 1226.37H105.866L515.491 750.218L842.672 1226.37H1200L714.137 519.284H714.163ZM569.165 687.828L521.697 619.934L144.011 79.6944H306.615L611.412 515.685L658.88 583.579L1055.08 1150.3H892.476L569.165 687.854V687.828Z"
       fill="white"
       id="path2"
       style="fill:#000000" />
  </g>
  <defs
     id="defs9">
    <clipPath
       id="clip0_1_2">
      <rect
         width="1200"
         height="1227"
         fill="black"
         id="rect6" />
    </clipPath>
  </defs>
</svg>
